public/images/icons/re-badges/badge-simple.svg

<svg width="66" height="54" viewBox="0 0 66 54" fill="none" xmlns="http://www.w3.org/2000/svg">
<g id="Group 2590">
<g id="Group 2389">
<g id="Vector">
<path d="M12.7914 3.55689C12.6924 3.06186 13.071 2.6 13.5758 2.6H51.6242C52.129 2.6 52.5076 3.06186 52.4086 3.55689L44.7286 41.9569C44.6538 42.3308 44.3255 42.6 43.9442 42.6H21.2558C20.8745 42.6 20.5462 42.3308 20.4714 41.9569L12.7914 3.55689Z" fill="#0084FF"/>
<path fill-rule="evenodd" clip-rule="evenodd" d="M13.5758 1H51.6242C53.1387 1 54.2746 2.38558 53.9776 3.87068L46.2976 42.2707C46.0732 43.3925 45.0882 44.2 43.9442 44.2H21.2558C20.1118 44.2 19.1268 43.3925 18.9025 42.2707L11.2224 3.87068C10.9254 2.38558 12.0613 1 13.5758 1ZM13.5758 2.6C13.071 2.6 12.6924 3.06186 12.7914 3.55689L20.4714 41.9569C20.5462 42.3308 20.8745 42.6 21.2558 42.6H43.9442C44.3255 42.6 44.6538 42.3308 44.7286 41.9569L52.4086 3.55689C52.5076 3.06186 52.129 2.6 51.6242 2.6H13.5758Z" fill="#182026"/>
<path d="M52.6 30.6C52.6 41.6457 43.6457 50.6 32.6 50.6C21.5543 50.6 12.6 41.6457 12.6 30.6C12.6 19.5543 21.5543 10.6 32.6 10.6C43.6457 10.6 52.6 19.5543 52.6 30.6Z" fill="white"/>
<path fill-rule="evenodd" clip-rule="evenodd" d="M54.2 30.6C54.2 42.5294 44.5294 52.2 32.6 52.2C20.6706 52.2 11 42.5294 11 30.6C11 18.6707 20.6706 9 32.6 9C44.5294 9 54.2 18.6707 54.2 30.6ZM32.6 50.6C43.6457 50.6 52.6 41.6457 52.6 30.6C52.6 19.5543 43.6457 10.6 32.6 10.6C21.5543 10.6 12.6 19.5543 12.6 30.6C12.6 41.6457 21.5543 50.6 32.6 50.6Z" fill="#182026"/>
<path fill-rule="evenodd" clip-rule="evenodd" d="M42.9459 23.9272C43.3023 24.2119 43.3489 24.7363 43.0484 25.0794L30.8692 38.9835C30.5731 39.3216 30.0567 39.3494 29.7259 39.0452L22.2166 32.1399C21.8808 31.8311 21.8708 31.3043 22.1948 30.983L24.2835 28.9116C24.587 28.6106 25.0736 28.6014 25.3883 28.8908L29.3589 32.542C29.6897 32.8462 30.2061 32.8183 30.5022 32.4802L39.5289 22.1751C39.8108 21.8533 40.2958 21.8102 40.63 22.0772L42.9459 23.9272Z" fill="#CBE1FF"/>
<path fill-rule="evenodd" clip-rule="evenodd" d="M21.3498 30.131L23.4385 28.0596C24.1974 27.307 25.4139 27.284 26.2006 28.0075L29.8695 31.3813L38.6263 21.3844C39.3309 20.58 40.5435 20.4722 41.379 21.1396L43.6949 22.9896C44.5857 23.7012 44.7023 25.0124 43.9511 25.8701L31.7718 39.7742C31.0316 40.6193 29.7406 40.689 28.9136 39.9286L21.4044 33.0232C20.5647 32.2511 20.5399 30.9342 21.3498 30.131ZM43.0484 25.0794C43.3489 24.7363 43.3023 24.2119 42.9459 23.9272L40.63 22.0772C40.2958 21.8102 39.8108 21.8533 39.5289 22.1751L30.5022 32.4802C30.2061 32.8183 29.6897 32.8462 29.3589 32.542L25.3883 28.8908C25.0736 28.6014 24.587 28.6106 24.2835 28.9116L22.1948 30.983C21.8708 31.3043 21.8808 31.8311 22.2166 32.1399L29.7259 39.0452C30.0567 39.3494 30.5731 39.3216 30.8692 38.9835L43.0484 25.0794Z" fill="#182026"/>
</g>
</g>
</g>
</svg>

<svg fill="none" viewBox="0 0 66 54"><path fill="#0084FF" d="M12.791 3.557a.8.8 0 01.785-.957h38.048a.8.8 0 01.785.957l-7.68 38.4a.8.8 0 01-.785.643H21.256a.8.8 0 01-.785-.643l-7.68-38.4z"/><path fill="#182026" fill-rule="evenodd" d="M13.576 1h38.048a2.4 2.4 0 012.354 2.87l-7.68 38.4a2.4 2.4 0 01-2.354 1.93H21.256a2.4 2.4 0 01-2.354-1.93l-7.68-38.4A2.4 2.4 0 0113.576 1zm0 1.6a.8.8 0 00-.785.957l7.68 38.4a.8.8 0 00.785.643h22.688a.8.8 0 00.785-.643l7.68-38.4a.8.8 0 00-.785-.957H13.576z" clip-rule="evenodd"/><path fill="#fff" d="M52.6 30.6c0 11.046-8.954 20-20 20s-20-8.954-20-20 8.954-20 20-20 20 8.954 20 20z"/><path fill="#182026" fill-rule="evenodd" d="M54.2 30.6c0 11.93-9.67 21.6-21.6 21.6-11.93 0-21.6-9.67-21.6-21.6C11 18.67 20.67 9 32.6 9c11.93 0 21.6 9.67 21.6 21.6zm-21.6 20c11.046 0 20-8.954 20-20s-8.954-20-20-20-20 8.954-20 20 8.954 20 20 20z" clip-rule="evenodd"/><path fill="#CBE1FF" fill-rule="evenodd" d="M42.946 23.927a.8.8 0 01.102 1.152L30.87 38.983a.8.8 0 01-1.143.062l-7.51-6.905a.8.8 0 01-.021-1.157l2.088-2.071a.8.8 0 011.105-.021l3.97 3.651a.8.8 0 001.144-.062l9.027-10.305a.8.8 0 011.101-.098l2.316 1.85z" clip-rule="evenodd"/><path fill="#182026" fill-rule="evenodd" d="M21.35 30.131l2.088-2.071a2 2 0 012.763-.052l3.668 3.373 8.757-9.997a2 2 0 012.753-.244l2.316 1.85a2 2 0 01.256 2.88l-12.18 13.904a2 2 0 01-2.857.155l-7.51-6.906a2 2 0 01-.054-2.892zm21.698-5.052a.8.8 0 00-.102-1.152l-2.316-1.85a.8.8 0 00-1.101.098L30.502 32.48a.8.8 0 01-1.143.062l-3.97-3.651a.8.8 0 00-1.105.02l-2.09 2.072a.8.8 0 00.023 1.157l7.509 6.905a.8.8 0 001.143-.062L43.05 25.08z" clip-rule="evenodd"/></svg>
